.github/wagtail-inverse.svg

<svg width="343" height="126" viewBox="0 0 343 126" fill="none" xmlns="http://www.w3.org/2000/svg">
<path d="M84.3883 1.897V7.58797C84.3883 7.58797 74.2044 3.79399 67.6149 10.6831C62.8225 15.6751 62.4231 21.2663 64.6196 28.7544C86.1854 28.7544 89.58 40.8352 89.58 40.8352L87.3835 26.9572L94.1727 18.6704C94.1727 8.88591 86.0856 2.39621 84.3883 1.897Z" fill="white"/>
<path d="M86.2853 18.4707C87.7189 18.4707 88.8811 17.3085 88.8811 15.8748C88.8811 14.4411 87.7189 13.2789 86.2853 13.2789C84.8516 13.2789 83.6894 14.4411 83.6894 15.8748C83.6894 17.3085 84.8516 18.4707 86.2853 18.4707Z" fill="black"/>
<path d="M89.58 40.8352C89.58 40.8352 86.2853 24.2615 64.7195 28.7544C62.523 21.2662 62.9223 15.775 67.7147 10.683C74.2044 3.79398 84.3883 7.58796 84.3883 7.58796V1.89699C80.794 0.299525 77.3994 0 73.6054 0C59.7274 0 52.0396 10.3835 48.7448 17.3724L9.70681 89.1585L20.6894 87.0618L0.521393 126L14.599 123.504L25.3819 92.8526C55.9334 92.8526 95.0713 81.87 89.58 40.8352Z" fill="black"/>
<path d="M102.759 26.9572L94.1727 18.6704L87.3835 26.9572H102.759Z" fill="black"/>
<path d="M30.4738 83.9667C30.4738 83.9667 31.4723 83.767 33.2694 83.3677C35.0666 82.9683 37.5626 82.3692 40.5578 81.5705C42.0555 81.1711 43.6529 80.6719 45.3502 80.0729C47.0475 79.4738 48.8447 78.8748 50.542 78.0761C52.3391 77.3772 54.1363 76.4786 55.9334 75.4802C57.7306 74.4818 59.4279 73.3835 61.0254 72.0856C61.4247 71.786 61.8241 71.4865 62.2235 71.0872L63.4215 70.0887C64.1204 69.3898 64.9192 68.691 65.6181 67.8922C66.317 67.1933 66.916 66.3946 67.5151 65.5959C67.8146 65.1965 68.1141 64.7971 68.4136 64.3978L68.813 63.7987L69.2124 63.1997C69.412 62.8003 69.7116 62.4009 69.9112 62.0016C70.1109 61.6022 70.3106 61.2028 70.6101 60.8035C70.71 60.6038 70.8098 60.4041 70.9097 60.2044C71.0095 60.0047 71.1093 59.8051 71.2092 59.6054C71.4089 59.206 71.6086 58.8066 71.7084 58.4073C72.0079 57.6085 72.3074 56.8098 72.607 56.0111C72.8066 55.2124 73.1062 54.4136 73.3059 53.7147C73.5055 53.0158 73.6054 52.2171 73.8051 51.6181C73.9049 50.9192 74.0047 50.3201 74.1046 49.6212C74.2044 49.0222 74.3043 48.4231 74.3043 47.9239C74.4041 47.4247 74.4041 46.9255 74.504 46.4263C74.6038 44.6292 74.6038 43.6307 74.6038 43.6307L76.2013 43.7306C76.2013 43.7306 76.1014 44.8288 76.0016 46.626C75.9017 47.1252 75.9017 47.6244 75.8019 48.1236C75.7021 48.7227 75.7021 49.3217 75.5024 49.9208C75.4025 50.5198 75.2028 51.2187 75.103 51.9176C74.9033 52.6165 74.7036 53.3154 74.504 54.1141C74.3043 54.9128 74.0048 55.6117 73.7052 56.5103C73.4057 57.309 73.1062 58.1078 72.7068 59.0063C72.5071 59.4057 72.3074 59.8051 72.1078 60.2044C72.0079 60.4041 71.9081 60.6038 71.8082 60.8035C71.7084 61.0032 71.6086 61.2028 71.5087 61.4025C71.309 61.8019 71.0095 62.2013 70.8098 62.7005C70.5103 63.0998 70.3106 63.4992 70.0111 63.8986C69.9112 64.0982 69.7116 64.2979 69.6117 64.4976L69.2124 65.0967C68.9128 65.496 68.6133 65.8954 68.3138 66.2948C67.6149 67.0935 67.0158 67.8922 66.2171 68.5911C65.5182 69.3898 64.7195 69.9889 63.9208 70.7876L62.7227 71.786C62.3233 72.0856 61.9239 72.3851 61.4247 72.6846C59.7274 73.8827 57.9303 74.981 56.1331 75.9794C54.336 76.878 52.439 77.7765 50.6418 78.4754C48.8447 79.1743 47.0475 79.7734 45.3502 80.2726C43.6529 80.7718 42.0555 81.271 40.458 81.5705C37.4628 82.2694 34.8669 82.8685 33.0697 83.168C31.4723 83.767 30.4738 83.9667 30.4738 83.9667Z" fill="white"/>
<path d="M127.32 83.767H118.534L105.954 47.4247H113.842L122.827 74.8811L131.813 47.4247H139.7L148.686 74.8811L157.672 47.4247H165.559L153.279 83.767H144.493L135.907 58.9065L127.32 83.767Z" fill="white"/>
<path d="M200.304 83.767H193.315V78.8748C190.32 82.4691 186.326 84.2662 181.235 84.2662C177.441 84.2662 174.345 83.168 171.849 81.0713C169.353 78.9746 168.155 76.0792 168.155 72.4849C168.155 68.8906 169.453 66.1949 172.149 64.4976C174.745 62.7005 178.339 61.8019 182.832 61.8019H192.716V60.4041C192.716 55.6117 190.021 53.1157 184.629 53.1157C181.235 53.1157 177.74 54.3138 174.146 56.8098L170.751 52.0174C175.144 48.523 180.136 46.7258 185.827 46.7258C190.12 46.7258 193.615 47.8241 196.311 49.9208C199.006 52.1173 200.404 55.5119 200.404 60.1046V83.767H200.304ZM192.616 70.1886V67.0935H184.03C178.539 67.0935 175.743 68.7908 175.743 72.2853C175.743 74.0824 176.442 75.3803 177.84 76.3788C179.238 77.2773 181.135 77.7765 183.531 77.7765C185.927 77.7765 188.124 77.0777 189.921 75.6799C191.718 74.3819 192.616 72.5848 192.616 70.1886Z" fill="white"/>
<path d="M241.838 47.4247V79.0745C241.838 85.4643 240.141 90.3566 236.647 93.5515C233.152 96.7464 228.659 98.3439 223.268 98.3439C217.777 98.3439 212.884 96.6466 208.491 93.252L212.086 87.4612C215.68 90.1569 219.174 91.4548 222.868 91.4548C226.463 91.4548 229.358 90.5562 231.455 88.6593C233.552 86.7623 234.65 83.767 234.65 79.6735V74.981C233.552 77.0776 231.854 78.8748 229.758 80.0729C227.661 81.3708 225.265 81.9699 222.669 81.9699C217.876 81.9699 213.883 80.2726 210.788 76.878C207.693 73.4833 206.095 69.29 206.095 64.2979C206.095 59.3059 207.693 55.1125 210.788 51.7179C213.883 48.3233 217.876 46.626 222.669 46.626C227.461 46.626 231.355 48.6228 234.35 52.6165V47.225H241.838V47.4247ZM213.483 64.1981C213.483 67.1933 214.382 69.7892 216.279 71.8859C218.076 74.0824 220.572 75.0808 223.767 75.0808C226.862 75.0808 229.458 74.0824 231.355 71.9857C233.252 69.889 234.25 67.2932 234.25 64.1981C234.25 61.103 233.252 58.4073 231.355 56.3106C229.358 54.1141 226.862 53.1157 223.767 53.1157C220.672 53.1157 218.176 54.2139 216.379 56.5103C214.382 58.607 213.483 61.2028 213.483 64.1981Z" fill="white"/>
<path d="M261.008 53.5151V71.9857C261.008 73.683 261.507 75.0808 262.406 76.0792C263.304 77.0777 264.602 77.5769 266.2 77.5769C267.797 77.5769 269.395 76.7781 270.892 75.1807L273.987 80.5721C271.292 82.9683 268.296 84.1664 265.101 84.1664C261.807 84.1664 259.111 83.0681 256.815 80.7718C254.518 78.4754 253.32 75.4802 253.32 71.6862V53.5151H248.727V47.3249H253.32V36.0428H261.008V47.4247H270.593V53.6149H261.008V53.5151Z" fill="white"/>
<path d="M309.531 83.767H302.542V78.8748C299.547 82.4691 295.553 84.2662 290.461 84.2662C286.667 84.2662 283.572 83.168 281.076 81.0713C278.58 78.9746 277.382 76.0792 277.382 72.4849C277.382 68.8906 278.68 66.1949 281.376 64.4976C283.971 62.7005 287.566 61.8019 292.059 61.8019H301.943V60.4041C301.943 55.6117 299.247 53.1157 293.856 53.1157C290.461 53.1157 286.967 54.3138 283.372 56.8098L279.978 52.0174C284.371 48.523 289.363 46.7258 295.054 46.7258C299.347 46.7258 302.842 47.8241 305.537 49.9208C308.233 52.1173 309.631 55.5119 309.631 60.1046V83.767H309.531ZM301.843 70.1886V67.0935H293.257C287.765 67.0935 284.97 68.7908 284.97 72.2853C284.97 74.0824 285.669 75.3803 287.067 76.3788C288.464 77.2773 290.361 77.7765 292.758 77.7765C295.154 77.7765 297.35 77.0777 299.147 75.6799C300.945 74.3819 301.843 72.5848 301.843 70.1886Z" fill="white"/>
<path d="M319.315 40.1363C318.317 39.1379 317.918 38.0396 317.918 36.7417C317.918 35.4437 318.417 34.2456 319.315 33.3471C320.314 32.3486 321.412 31.9493 322.71 31.9493C324.008 31.9493 325.206 32.4485 326.105 33.3471C327.103 34.3455 327.502 35.4437 327.502 36.7417C327.502 38.0396 327.003 39.2377 326.105 40.1363C325.206 41.0349 324.008 41.5341 322.71 41.5341C321.412 41.6339 320.314 41.1347 319.315 40.1363ZM326.504 83.767H318.816V47.4247H326.504V83.767Z" fill="white"/>
<path d="M342.479 83.767H334.791V33.0475H342.479V83.767Z" fill="white"/>
</svg>

<svg fill="none" xmlns="http://www.w3.org/2000/svg" viewBox="0 0 343 126"><rect width="100%" height="100%" fill="#000"/><path d="M84.388 1.897v5.691s-10.184-3.794-16.773 3.095c-4.792 4.992-5.192 10.583-2.995 18.071 21.565 0 24.96 12.081 24.96 12.081l-2.197-13.878 6.79-8.287c0-9.784-8.087-16.274-9.785-16.773Z" fill="#000"/><path d="M86.285 18.47a2.596 2.596 0 1 0 0-5.191 2.596 2.596 0 0 0 0 5.192Z" fill="#fff"/><path d="M89.58 40.835s-3.295-16.573-24.86-12.08c-2.197-7.489-1.798-12.98 2.995-18.072 6.49-6.889 16.673-3.095 16.673-3.095V1.897C80.794.3 77.4 0 73.605 0 59.727 0 52.04 10.383 48.745 17.372L9.707 89.16l10.982-2.097L.521 126l14.078-2.496 10.783-30.651c30.551 0 69.69-10.983 64.198-52.018Z" fill="#fff"/><path d="m102.759 26.957-8.586-8.287-6.79 8.287h15.376ZM30.474 83.967s.998-.2 2.795-.6c1.798-.399 4.294-.998 7.289-1.797a63.795 63.795 0 0 0 4.792-1.497c1.697-.6 3.495-1.198 5.192-1.997 1.797-.699 3.594-1.597 5.391-2.596 1.798-.998 3.495-2.097 5.092-3.394.4-.3.8-.6 1.199-.999l1.198-.998c.698-.7 1.497-1.398 2.196-2.197.699-.699 1.298-1.497 1.897-2.296l.899-1.198.399-.6.4-.598c.199-.4.499-.8.698-1.198.2-.4.4-.8.7-1.199l.299-.599.3-.599c.199-.399.399-.798.498-1.198l.899-2.396c.2-.799.5-1.597.699-2.296.2-.7.3-1.498.5-2.097.099-.699.199-1.298.299-1.997.1-.599.2-1.198.2-1.697.1-.5.1-.998.199-1.498.1-1.797.1-2.795.1-2.795l1.597.1s-.1 1.098-.2 2.895c-.1.5-.1.998-.2 1.498-.099.599-.099 1.198-.299 1.797-.1.599-.3 1.298-.399 1.997-.2.699-.4 1.397-.599 2.196-.2.799-.5 1.498-.799 2.396-.3.799-.599 1.598-.998 2.496l-.6 1.198-.299.6-.3.599c-.199.399-.498.798-.698 1.297-.3.4-.5.8-.799 1.199-.1.2-.3.399-.4.599l-.399.599-.898 1.198c-.7.799-1.298 1.597-2.097 2.296-.699.799-1.498 1.398-2.296 2.197l-1.198.998c-.4.3-.8.6-1.298.899a58.299 58.299 0 0 1-5.292 3.294c-1.797.899-3.694 1.797-5.491 2.496a66.308 66.308 0 0 1-5.292 1.798c-1.697.499-3.294.998-4.892 1.297-2.995.7-5.591 1.299-7.388 1.598-1.598.599-2.596.799-2.596.799Zm96.846-.2h-8.786l-12.58-36.342h7.888l8.985 27.456 8.986-27.456h7.887l8.986 27.456 8.986-27.456h7.887l-12.28 36.342h-8.786l-8.586-24.86-8.587 24.86Zm72.984 0h-6.989v-4.892c-2.995 3.594-6.989 5.391-12.08 5.391-3.794 0-6.89-1.098-9.386-3.195-2.496-2.096-3.694-4.992-3.694-8.586 0-3.594 1.298-6.29 3.994-7.987 2.596-1.798 6.19-2.696 10.683-2.696h9.884v-1.398c0-4.792-2.695-7.288-8.087-7.288-3.394 0-6.889 1.198-10.483 3.694l-3.395-4.793c4.393-3.494 9.385-5.291 15.076-5.291 4.293 0 7.788 1.098 10.484 3.195 2.695 2.196 4.093 5.59 4.093 10.184v23.662h-.1Zm-7.688-13.578v-3.095h-8.586c-5.491 0-8.287 1.697-8.287 5.191 0 1.797.699 3.095 2.097 4.094 1.398.898 3.295 1.397 5.691 1.397s4.593-.698 6.39-2.096c1.797-1.298 2.695-3.095 2.695-5.491Zm49.222-22.764v31.65c0 6.39-1.697 11.282-5.191 14.477-3.495 3.194-7.988 4.792-13.379 4.792-5.491 0-10.384-1.697-14.777-5.092l3.595-5.79c3.594 2.695 7.088 3.993 10.782 3.993 3.595 0 6.49-.899 8.587-2.796 2.097-1.897 3.195-4.892 3.195-8.986v-4.692a12.634 12.634 0 0 1-4.892 5.092c-2.097 1.298-4.493 1.897-7.089 1.897-4.793 0-8.786-1.697-11.881-5.092-3.095-3.395-4.693-7.588-4.693-12.58s1.598-9.186 4.693-12.58c3.095-3.395 7.088-5.092 11.881-5.092 4.792 0 8.686 1.997 11.681 5.99v-5.391h7.488v.2Zm-28.355 16.773c0 2.995.899 5.591 2.796 7.688 1.797 2.196 4.293 3.195 7.488 3.195 3.095 0 5.691-.999 7.588-3.095 1.897-2.097 2.895-4.693 2.895-7.788 0-3.095-.998-5.79-2.895-7.887-1.997-2.197-4.493-3.195-7.588-3.195-3.095 0-5.591 1.098-7.388 3.394-1.997 2.097-2.896 4.693-2.896 7.688Zm47.525-10.683v18.47c0 1.698.499 3.096 1.398 4.094.898.999 2.196 1.498 3.794 1.498 1.597 0 3.195-.799 4.692-2.396l3.095 5.391c-2.695 2.396-5.691 3.594-8.886 3.594-3.294 0-5.99-1.098-8.286-3.394-2.297-2.297-3.495-5.292-3.495-9.086v-18.17h-4.593v-6.191h4.593V36.043h7.688v11.382h9.585v6.19h-9.585v-.1Zm48.523 30.252h-6.989v-4.892c-2.995 3.594-6.989 5.391-12.081 5.391-3.794 0-6.889-1.098-9.385-3.195-2.496-2.096-3.694-4.992-3.694-8.586 0-3.594 1.298-6.29 3.994-7.987 2.595-1.798 6.19-2.696 10.683-2.696h9.884v-1.398c0-4.792-2.696-7.288-8.087-7.288-3.395 0-6.889 1.198-10.484 3.694l-3.394-4.793c4.393-3.494 9.385-5.291 15.076-5.291 4.293 0 7.788 1.098 10.483 3.195 2.696 2.196 4.094 5.59 4.094 10.184v23.662h-.1Zm-7.688-13.578v-3.095h-8.586c-5.492 0-8.287 1.697-8.287 5.191 0 1.797.699 3.095 2.097 4.094 1.397.898 3.294 1.397 5.691 1.397 2.396 0 4.592-.698 6.389-2.096 1.798-1.298 2.696-3.095 2.696-5.491Zm17.472-30.053c-.998-.998-1.397-2.096-1.397-3.394s.499-2.496 1.397-3.395c.999-.998 2.097-1.398 3.395-1.398s2.496.5 3.395 1.398c.998.998 1.397 2.097 1.397 3.395a4.756 4.756 0 0 1-1.397 3.394 4.756 4.756 0 0 1-3.395 1.398c-1.298.1-2.396-.4-3.395-1.398Zm7.189 43.631h-7.688V47.425h7.688v36.342Zm15.975 0h-7.688v-50.72h7.688v50.72Z" fill="#fff"/></svg>
